X:1
T:Title
%%score { ( 1 5 6 ) | ( 2 3 4 ) }
L:1/8
M:3/4
K:F
V:1 treble nm="Grand Piano"
V:5 treble 
V:6 treble 
V:2 bass 
V:3 bass 
V:4 bass 
V:1
 z2 z2[Q:1/4=106] C2 | [CA]4 [B,G]F | [CA]4 [B,G]F | [DB]4 [DF]G | [CA]4 A2 | A .G3 D2 | %6
 EA- A3 [B,G] | [A,F]6- | [A,F]4 C2 | [CA]4 [B,G]F | [CA]4 [B,G]F | [DB]4 [^CF]G | [CA]4 [CA]2 | %13
 [CA]4 [B,G]D | z A- A3 z | [A,F]6- |[M:2/4] [A,F]4 |[M:1/4] [EG]2 |[M:3/4] [EG] .[EG]3 [FA]2 | %19
 [GB]4 [Ac][GB] | A2 F2 G2 | A4 A2 | c4 cc | c2 B2 A2 | [EG]6- |[M:2/4] [EG]4 |[M:1/4] A2 | %27
[M:3/4] c4 BA | A2 G2 F2 | D2 d2 c2 | B4 [EB]2 | [EB]A- A3 F |[M:7/8] D3 [EA]2 [EG]2 | %33
[M:3/4] [CF]6- |[M:2/4] [CF]4 |] %35
V:2
 z2 z2 A,2 | z2 z2 F,2 | z2 z2 F,2 | z2 z2 F,2 | F,,2 C,2 [F,C]2 | [C,C] .[E,B,]3 [G,B,]2 | %6
 z C- C3 z | F,2 C,2 A,,2 | F,,4 A,2 | z2 z2 F,2 | z2 z2 F,2 | z2 z2 F,2 | F,,2 C,2 F,2 | %13
 z2 z2 G,2 | z C- C3 B, | F,2 C,2 A,,2 |[M:2/4] F,,4 |[M:1/4] [C,C]2 | %18
[M:3/4] [C,C] .[C,C]3 [C,C]2 | [C,C]4 [C,C][C,C] | [F,CF]2 [F,A,]2 [F,B,F]2 | [F,CF]4 [F,CF]2 | %22
 [F,A,F]4 [F,A,F][F,A,F] | [F,A,F]2 [F,DF]2 [F,CF]2 | [C,C]6- |[M:2/4] [C,C]4 |[M:1/4] [F,CF]2 | %27
[M:3/4] [F,A,F]4 [F,DF][F,CF] | [F,CF]2 [G,CE]2 [A,C_E]2 | B,2[K:treble] [B,F]2 [A,D^F]2 | %30
 [G,DG]4[K:bass] [C,C]2 | [C,C][F,CF]- [F,CF]3 [F,A,C] |[M:7/8] [G,=B,]3 [C,_B,]2 [C,B,]2 | %33
[M:3/4] [F,A,]6- |[M:2/4] [F,A,]4 |] %35
V:3
 x6 | F,,2 C,2 z A, | F,,2 C,2 z A, | B,,2 D,2 z ^C | x6 | x6 | .C2 D,2 z E, | x6 | x6 | %9
 F,,2 C,2 z A, | F,,2 C,2 z A, | B,,2 D,2 z ^C | x6 | C,2 E,2 z B, | E,2 z2 z2 | x6 |[M:2/4] x4 | %17
[M:1/4] x2 |[M:3/4] x6 | x6 | x6 | x6 | x6 | x6 | x6 |[M:2/4] x4 |[M:1/4] x2 |[M:3/4] x6 | x6 | %29
 x2[K:treble] x4 | x4[K:bass] x2 | x6 |[M:7/8] x7 |[M:3/4] x6 |[M:2/4] x4 |] %35
V:4
 x6 | x6 | x6 | x6 | x6 | x6 | C,2 z2 z2 | x6 | x6 | x6 | x6 | x6 | x6 | x6 | x6 | x6 |[M:2/4] x4 | %17
[M:1/4] x2 |[M:3/4] x6 | x6 | x6 | x6 | x6 | x6 | x6 |[M:2/4] x4 |[M:1/4] x2 |[M:3/4] x6 | x6 | %29
 x2[K:treble] x4 | x4[K:bass] x2 | x6 |[M:7/8] x7 |[M:3/4] x6 |[M:2/4] x4 |] %35
V:5
 x6 | x6 | x6 | x6 | x6 | x6 | x6 | x6 | x6 | x6 | x6 | x6 | x6 | x6 | .[CE]2 D,2 z G | x6 | %16
[M:2/4] x4 |[M:1/4] x2 |[M:3/4] x6 | x6 | x6 | x6 | x6 | x6 | x6 |[M:2/4] x4 |[M:1/4] x2 | %27
[M:3/4] x6 | x6 | x6 | x6 | x6 |[M:7/8] x7 |[M:3/4] x6 |[M:2/4] x4 |] %35
V:6
 x6 | x6 | x6 | x6 | x6 | x6 | x6 | x6 | x6 | x6 | x6 | x6 | x6 | x6 | z2 z2 E,2 | x6 |[M:2/4] x4 | %17
[M:1/4] x2 |[M:3/4] x6 | x6 | x6 | x6 | x6 | x6 | x6 |[M:2/4] x4 |[M:1/4] x2 |[M:3/4] x6 | x6 | %29
 x6 | x6 | x6 |[M:7/8] x7 |[M:3/4] x6 |[M:2/4] x4 |] %35

